dapp/src/images/questionmark-icon.svg

<svg fill="none" height="17" viewBox="0 0 16 17" width="16" xmlns="http://www.w3.org/2000/svg"><g fill="#687692"><path clip-rule="evenodd" d="m8.02887 2.3688c-3.52562 0-6.38371 2.85808-6.38371 6.38371 0 3.52559 2.85809 6.38369 6.38371 6.38369 3.52563 0 6.38373-2.8581 6.38373-6.38369 0-3.52563-2.8581-6.38371-6.38373-6.38371zm-7.802308 6.38371c0-4.3091 3.493218-7.802315 7.802308-7.802315 4.30913 0 7.80233 3.493215 7.80233 7.802315 0 4.30909-3.4932 7.80229-7.80233 7.80229-4.30909 0-7.802308-3.4932-7.802308-7.80229z" fill-rule="evenodd"/><path d="m7.18287 10.2658v-.1131c.00222-.38814.0366-.69755.10313-.92822.06876-.23067.16857-.41698.29943-.55893.13086-.14196.28834-.2706.47244-.38594.13751-.08871.26061-.18076.36929-.27613.10868-.09538.19518-.20073.25951-.31607.06432-.11755.09648-.24841.09648-.39258 0-.15304-.0366-.28723-.10979-.40257-.0732-.11533-.1719-.20405-.2961-.26616-.12199-.0621-.25729-.09315-.4059-.09315-.14417 0-.28057.03216-.40922.09648-.12864.0621-.23399.15526-.31606.27947-.08206.12199-.12642.27392-.13308.45579h-1.35741c.01109-.44359.11756-.80956.31939-1.0979.20184-.29056.46911-.50681.80181-.64876.33269-.14417.69977-.21626 1.10123-.21626.44138 0 .83174.0732 1.1711.21958.33935.14417.60551.35377.79847.6288.19301.27503.28941.60662.28941.99477 0 .25951-.0432.49018-.1297.69202-.0843.19961-.20296.37705-.356.53231-.15304.15304-.33381.29167-.5423.41588-.17522.10424-.31939.21292-.43251.32604-.1109.11312-.19407.24398-.24952.39258-.05323.14861-.08096.33159-.08317.54895v.1131zm.65874 2.1293c-.2218 0-.41144-.0776-.56891-.2329-.15526-.1575-.23178-.346-.22957-.5656-.00221-.2173.07431-.4037.22957-.5589.15747-.1553.34711-.2329.56891-.2329.21071 0 .39591.0776.55561.2329.15969.1552.24065.3416.24287.5589-.00222.1464-.04103.2806-.11645.4026-.07319.1198-.16967.2162-.28944.2894-.11978.071-.25064.1065-.39259.1065z"/></g></svg>

<svg width="16" height="17" viewBox="0 0 16 17" fill="none" xmlns="http://www.w3.org/2000/svg">
<path fill-rule="evenodd" clip-rule="evenodd" d="M8.02887 2.3688C4.50325 2.3688 1.64516 5.22688 1.64516 8.75251C1.64516 12.2781 4.50325 15.1362 8.02887 15.1362C11.5545 15.1362 14.4126 12.2781 14.4126 8.75251C14.4126 5.22688 11.5545 2.3688 8.02887 2.3688ZM0.226562 8.75251C0.226562 4.44341 3.71978 0.950195 8.02887 0.950195C12.338 0.950195 15.8312 4.44341 15.8312 8.75251C15.8312 13.0616 12.338 16.5548 8.02887 16.5548C3.71978 16.5548 0.226562 13.0616 0.226562 8.75251Z" fill="#687692"/>
<path d="M7.18287 10.2658V10.1527C7.18509 9.76456 7.21947 9.45515 7.286 9.22448C7.35476 8.99381 7.45457 8.8075 7.58543 8.66555C7.71629 8.52359 7.87377 8.39495 8.05787 8.27961C8.19538 8.1909 8.31848 8.09885 8.42716 8.00348C8.53584 7.9081 8.62234 7.80275 8.68667 7.68741C8.75099 7.56986 8.78315 7.439 8.78315 7.29483C8.78315 7.14179 8.74655 7.0076 8.67336 6.89226C8.60016 6.77693 8.50146 6.68821 8.37726 6.6261C8.25527 6.564 8.11997 6.53295 7.97136 6.53295C7.82719 6.53295 7.69079 6.56511 7.56214 6.62943C7.4335 6.69153 7.32815 6.78469 7.24608 6.9089C7.16402 7.03089 7.11966 7.18282 7.113 7.36469H5.75559C5.76668 6.9211 5.87315 6.55513 6.07498 6.26679C6.27682 5.97623 6.54409 5.75998 6.87679 5.61803C7.20948 5.47386 7.57656 5.40177 7.97802 5.40177C8.4194 5.40177 8.80976 5.47497 9.14912 5.62135C9.48847 5.76552 9.75463 5.97512 9.94759 6.25015C10.1406 6.52518 10.237 6.85677 10.237 7.24492C10.237 7.50443 10.1938 7.7351 10.1073 7.93694C10.023 8.13655 9.90434 8.31399 9.7513 8.46925C9.59826 8.62229 9.41749 8.76092 9.209 8.88513C9.03378 8.98937 8.88961 9.09805 8.77649 9.21117C8.66559 9.32429 8.58242 9.45515 8.52697 9.60375C8.47374 9.75236 8.44601 9.93534 8.4438 10.1527V10.2658H7.18287ZM7.84161 12.3951C7.61981 12.3951 7.43017 12.3175 7.2727 12.1622C7.11744 12.0047 7.04092 11.8162 7.04313 11.5966C7.04092 11.3793 7.11744 11.1929 7.2727 11.0377C7.43017 10.8824 7.61981 10.8048 7.84161 10.8048C8.05232 10.8048 8.23752 10.8824 8.39722 11.0377C8.55691 11.1929 8.63787 11.3793 8.64009 11.5966C8.63787 11.743 8.59906 11.8772 8.52364 11.9992C8.45045 12.119 8.35397 12.2154 8.2342 12.2886C8.11442 12.3596 7.98356 12.3951 7.84161 12.3951Z" fill="#687692"/>
</svg>
